GameSystems/MossSystem/CanonCF_Bright_Amber_CLog3_to_709_33.cube
# Bright Amber
# Input Color Space : Canon Log 3 / Cinema Gamut
# Output Color Space : BT.709
# Creation Date : 2025-07-07
# ```
# {
#   "custom_picture": {
#     "reset": "canon_log_3",
#     "with_look_file": "sdr_bt709"
#   }
# }
# ```
LUT_3D_SIZE 5
0.06712440 0.04870680 0.03768980
0.42805303 0.05205991 0.03954355
0.70305900 0.11032300 0.09988560
0.70305900 0.11032300 0.09988560
0.70305900 0.11032300 0.09988560
0.24829664 0.34436750 0.03977046
0.35510974 0.30071884 0.04279011
0.72066433 0.17540325 0.07149446
0.72166370 0.12333540 0.09297454
0.71596515 0.12027129 0.09263363
0.43469900 0.74839400 0.00000000
0.43469900 0.74839400 0.00000000
0.79763533 0.66778879 0.00000000
0.86738673 0.60961629 0.00000000
0.86435689 0.59570010 0.00000000
0.43469900 0.74839400 0.00000000
0.43469900 0.74839400 0.00000000
0.71680404 0.77836944 0.00000000
1.00000000 0.77444100 0.00077821
1.00000000 0.77444100 0.00077821
0.43469900 0.74839400 0.00000000
0.43469900 0.74839400 0.00000000
0.68868098 0.77779376 0.00000000
1.00000000 0.77444100 0.00077821
1.00000000 0.77444100 0.00077821
0.15392937 0.10030121 0.25195317
0.42125166 0.11839885 0.25689695
0.74805128 0.20421841 0.25831231
0.74779527 0.20308546 0.25741064
0.74737172 0.20234213 0.25372202
0.24729076 0.30731527 0.19957850
0.33681183 0.25703613 0.18108848
0.75911273 0.16933402 0.16636500
0.75008930 0.13961275 0.16404393
0.75652229 0.13582324 0.16012057
0.43469900 0.74839400 0.00000000
0.43085736 0.73620617 0.00000000
0.73949623 0.61545060 0.00402232
0.87492416 0.55357129 0.00922232
0.87007819 0.54319586 0.00951786
0.43469900 0.74839400 0.00000000
0.43469900 0.74839400 0.00000000
0.68012390 0.77526668 0.00000000
1.00000000 0.77444100 0.00077821
1.00000000 0.77444100 0.00077821
0.43469900 0.74839400 0.00000000
0.43469900 0.74839400 0.00000000
0.66161488 0.77617293 0.00000000
1.00000000 0.77444100 0.00077821
1.00000000 0.77444100 0.00077821
0.26866600 0.17164900 0.54956900
0.36852549 0.17795021 0.55940169
0.78870800 0.07067980 0.51955400
0.78870800 0.07067980 0.51955400
0.78870800 0.07067980 0.51955400
0.30017876 0.24084150 0.56935377
0.31650511 0.20839282 0.56207326
0.78870800 0.07067980 0.51955400
0.78870800 0.07067980 0.51955400
0.78870800 0.07067980 0.51955400
0.35492820 0.71713248 0.51041952
0.40784454 0.63125794 0.47366377
0.66314491 0.52160619 0.39164901
0.84868602 0.47860417 0.42845662
0.84934382 0.46884840 0.40886748
0.15319757 0.75058221 0.34039634
0.15557877 0.75512940 0.31786434
0.54211137 0.79550222 0.18507868
1.00000000 0.79977668 0.23041865
1.00000000 0.79262389 0.25188231
0.16543258 0.75040546 0.30510874
0.15223501 0.75127504 0.29327636
0.52104196 0.79683689 0.15116454
0.98499095 0.80682243 0.07754056
1.00000000 0.80475255 0.17600013
0.26866600 0.17164900 0.54956900
0.35155733 0.17581480 0.56121991
0.78870800 0.07067980 0.51955400
0.78870800 0.07067980 0.51955400
0.78870800 0.07067980 0.51955400
0.29037070 0.20910372 0.55932007
0.29354735 0.18533400 0.56257597
0.78870800 0.07067980 0.51955400
0.78870800 0.07067980 0.51955400
0.78870800 0.07067980 0.51955400
0.37184036 0.65622844 0.67525487
0.38257422 0.59043302 0.65335183
0.63192935 0.50026470 0.63154669
0.91703709 0.42094338 0.61630811
0.91620645 0.40107803 0.60339181
0.20978100 0.76389700 0.75730500
0.19344862 0.76712230 0.74346598
0.45348575 0.79566199 0.70933701
0.97593437 0.85418554 0.76277485
0.99964396 0.82391031 0.73383222
0.19528820 0.76876052 0.71667953
0.21269976 0.77138395 0.71051664
0.45359284 0.78907501 0.67335252
0.90545168 0.89211804 0.63370329
1.00000000 0.88953543 0.69392248
0.26866600 0.17164900 0.54956900
0.34735573 0.17587099 0.55975362
0.78870800 0.07067980 0.51955400
0.78870800 0.07067980 0.51955400
0.78870800 0.07067980 0.51955400
0.28623546 0.20456812 0.56058515
0.29225508 0.18107448 0.55940929
0.78933551 0.07334098 0.51898264
0.78870800 0.07067980 0.51955400
0.78870800 0.07067980 0.51955400
0.37229219 0.64446475 0.67056672
0.38102925 0.58442861 0.64742491
0.61947784 0.49275839 0.62803673
0.91604001 0.40588435 0.60632023
0.92755885 0.38673502 0.59943289
0.20978100 0.76389700 0.75730500
0.20978100 0.76389700 0.75730500
0.43103735 0.79475431 0.75330260
0.93865777 0.82882007 0.80380095
1.00000000 0.79033161 0.78672580
0.20978100 0.76389700 0.75730500
0.20978100 0.76389700 0.75730500
0.41104779 0.79207019 0.75702059
0.84462458 0.89809457 0.81301908
1.00000000 0.98532100 0.93641600
