GameSystems/MossSystem/CanonCF_Bright_Amber_CLog3_to_709_33.cube
# Bright Amber
# Input Color Space : Canon Log 3 / Cinema Gamut
# Output Color Space : BT.709
# Creation Date : 2025-07-07
# ```
# {
#   "custom_picture": {
#     "reset": "canon_log_3",
#     "with_look_file": "sdr_bt709"
#   }
# }
# ```
LUT_3D_SIZE 33
0.06712440 0.04870680 0.03768980
0.06712440 0.04870680 0.03768980
0.06712440 0.04870680 0.03768980
0.06712440 0.04870680 0.03768980
0.08403701 0.04449975 0.03708067
0.21819339 0.05672802 0.03986314
0.30386725 0.05241172 0.03542098
0.36939584 0.04384327 0.03332774
0.42805303 0.05205991 0.03954355
0.49500286 0.05841041 0.04961361
0.55039709 0.06905410 0.06407623
0.60818850 0.08080173 0.07804566
0.67183361 0.09550980 0.09368854
0.70299567 0.11023984 0.09993435
0.70305900 0.11032300 0.09988560
0.70305900 0.11032300 0.09988560
0.70305900 0.11032300 0.09988560
0.70305900 0.11032300 0.09988560
0.70305900 0.11032300 0.09988560
0.70305900 0.11032300 0.09988560
0.70305900 0.11032300 0.09988560
0.70305900 0.11032300 0.09988560
0.70305900 0.11032300 0.09988560
0.70305900 0.11032300 0.09988560
0.70305900 0.11032300 0.09988560
0.70305900 0.11032300 0.09988560
0.70305900 0.11032300 0.09988560
0.70305900 0.11032300 0.09988560
0.70305900 0.11032300 0.09988560
0.70305900 0.11032300 0.09988560
0.70305900 0.11032300 0.09988560
0.70305900 0.11032300 0.09988560
0.70305900 0.11032300 0.09988560
0.06712440 0.04870680 0.03768980
0.06712440 0.04870680 0.03768980
0.06712440 0.04870680 0.03768980
0.06712440 0.04870680 0.03768980
0.08403701 0.04449975 0.03708067
0.21819339 0.05672802 0.03986314
0.30386725 0.05241172 0.03542098
0.36939584 0.04384327 0.03332774
0.42805303 0.05205991 0.03954355
0.49500286 0.05841041 0.04961361
0.55039709 0.06905410 0.06407623
0.60818850 0.08080173 0.07804566
0.67183361 0.09550980 0.09368854
0.70299567 0.11023984 0.09993435
0.70305900 0.11032300 0.09988560
0.70305900 0.11032300 0.09988560
0.70305900 0.11032300 0.09988560
0.70305900 0.11032300 0.09988560
0.70305900 0.11032300 0.09988560
0.70305900 0.11032300 0.09988560
0.70305900 0.11032300 0.09988560
0.70305900 0.11032300 0.09988560
0.70305900 0.11032300 0.09988560
0.70305900 0.11032300 0.09988560
0.70305900 0.11032300 0.09988560
0.70305900 0.11032300 0.09988560
0.70305900 0.11032300 0.09988560
0.70305900 0.11032300 0.09988560
0.70305900 0.11032300 0.09988560
0.70305900 0.11032300 0.09988560
0.70305900 0.11032300 0.09988560
0.70305900 0.11032300 0.09988560
0.70305900 0.11032300 0.09988560
0.06712440 0.04870680 0.03768980
0.06712440 0.04870680 0.03768980
0.06712440 0.04870680 0.03768980
0.06712440 0.04870680 0.03768980
0.08403701 0.04449975 0.03708067
0.21819339 0.05672802 0.03986314
0.30386725 0.05241172 0.03542098
0.36939584 0.04384327 0.03332774
0.42805303 0.05205991 0.03954355
0.49500286 0.05841041 0.04961361
0.55039709 0.06905410 0.06407623
0.60818850 0.08080173 0.07804566
0.67183361 0.09550980 0.09368854
0.70299567 0.11023984 0.09993435
0.70305900 0.11032300 0.09988560
0.70305900 0.11032300 0.09988560
0.70305900 0.11032300 0.09988560
0.70305900 0.11032300 0.09988560
0.70305900 0.11032300 0.09988560
0.70305900 0.11032300 0.09988560
0.70305900 0.11032300 0.09988560
0.70305900 0.11032300 0.09988560
0.70305900 0.11032300 0.09988560
0.70305900 0.11032300 0.09988560
0.70305900 0.11032300 0.09988560
0.70305900 0.11032300 0.09988560
0.70305900 0.11032300 0.09988560
0.70305900 0.11032300 0.09988560
0.70305900 0.11032300 0.09988560
0.70305900 0.11032300 0.09988560
0.70305900 0.11032300 0.09988560
0.70305900 0.11032300 0.09988560
0.70305900 0.11032300 0.09988560
0.06712440 0.04870680 0.03768980
0.06712440 0.04870680 0.03768980
0.06712440 0.04870680 0.03768980
0.06712440 0.04870680 0.03768980
0.08405920 0.04450487 0.03708237
0.21828555 0.05670584 0.03983413
0.30385361 0.05240489 0.03538002
0.36952379 0.04386204 0.03335334
0.42808032 0.05211622 0.03951624
0.49503350 0.05849745 0.04957266
0.55039888 0.06901485 0.06410353
0.60839496 0.08086316 0.07806273
0.67185575 0.09553888 0.09367150
0.70299567 0.11023984 0.09993435
0.70305900 0.11032300 0.09988560
0.70305900 0.11032300 0.09988560
0.70305900 0.11032300 0.09988560
0.70305900 0.11032300 0.09988560
0.70305900 0.11032300 0.09988560
0.70305900 0.11032300 0.09988560
0.70305900 0.11032300 0.09988560
0.70305900 0.11032300 0.09988560
0.70305900 0.11032300 0.09988560
0.70305900 0.11032300 0.09988560
0.70305900 0.11032300 0.09988560
0.70305900 0.11032300 0.09988560
0.70305900 0.11032300 0.09988560
0.70305900 0.11032300 0.09988560
0.70305900 0.11032300 0.09988560
0.70305900 0.11032300 0.09988560
0.70305900 0.11032300 0.09988560
0.70305900 0.11032300 0.09988560
0.70305900 0.11032300 0.09988560
0.07077457 0.06233828 0.04689665
0.07077457 0.06233828 0.04689665
0.07077457 0.06233828 0.04689665
0.07077457 0.06233487 0.04689494
0.08674900 0.06068176 0.03463269
0.21262131 0.05424755 0.04153780
0.29234779 0.05908272 0.03387269
0.36389027 0.04288542 0.03457781
0.43159667 0.04821792 0.04962453
0.49440340 0.05665968 0.05043377
0.55011575 0.06953114 0.06362883
0.60513346 0.08030639 0.07774535
0.66835174 0.09468754 0.09185977
0.70258774 0.10970252 0.10022523
0.70305900 0.11032300 0.09988560
0.70305900 0.11032300 0.09988560
0.70305900 0.11032300 0.09988560
0.70305900 0.11032300 0.09988560
0.70305900 0.11032300 0.09988560
0.70305900 0.11032300 0.09988560
0.70305900 0.11032300 0.09988560
0.70305900 0.11032300 0.09988560
0.70305900 0.11032300 0.09988560
0.70305900 0.11032300 0.09988560
0.70305900 0.11032300 0.09988560
0.70305900 0.11032300 0.09988560
0.70305900 0.11032300 0.09988560
0.70305900 0.11032300 0.09988560
0.70305900 0.11032300 0.09988560
0.70305900 0.11032300 0.09988560
0.70305900 0.11032300 0.09988560
0.70305900 0.11032300 0.09988560
0.70305900 0.11032300 0.09988560
0.11644161 0.15529762 0.04445058
0.11644161 0.15529762 0.04445058
0.11644161 0.15529762 0.04445058
0.11644161 0.15531820 0.04445399
0.11585781 0.15265528 0.04468255
0.16829399 0.13777805 0.04613043
0.26945503 0.12020322 0.04169125
0.35210613 0.09221034 0.03602539
0.41918230 0.06421513 0.03901920
0.47041991 0.05627724 0.05144238
0.53082740 0.05314877 0.06957014
0.58860191 0.07872698 0.07224538
0.64829222 0.09218226 0.08803979
0.69779926 0.10711252 0.10039238
0.70305900 0.11032300 0.09988560
0.70305900 0.11032300 0.09988560
0.70305900 0.11032300 0.09988560
0.70305900 0.11032300 0.09988560
0.70305900 0.11032300 0.09988560
0.70305900 0.11032300 0.09988560
0.70305900 0.11032300 0.09988560
0.70305900 0.11032300 0.09988560
0.70305900 0.11032300 0.09988560
0.70305900 0.11032300 0.09988560
0.70305900 0.11032300 0.09988560
0.70305900 0.11032300 0.09988560
0.70305900 0.11032300 0.09988560
0.70305900 0.11032300 0.09988560
0.70305900 0.11032300 0.09988560
0.70305900 0.11032300 0.09988560
0.70305900 0.11032300 0.09988560
0.70305900 0.11032300 0.09988560
0.70305900 0.11032300 0.09988560
0.16210020 0.22651447 0.04095138
0.16210020 0.22651447 0.04095138
0.16210020 0.22651447 0.04095138
0.16210366 0.22651783 0.04095138
0.16082404 0.22467077 0.04079750
0.17033068 0.21278033 0.04211193
0.24272149 0.20502686 0.04461617
0.33158389 0.18454865 0.03959944
0.40858971 0.15167672 0.03929847
0.47425249 0.12345025 0.04228468
0.52602299 0.10356087 0.05053608
0.58749894 0.08463717 0.06100934
0.63432501 0.09325627 0.07347415
0.68811474 0.10395512 0.09870997
0.70183643 0.10593222 0.09802583
0.70299260 0.11008575 0.09978503
0.70299270 0.11008034 0.09978484
0.70305900 0.11032300 0.09988560
0.70305900 0.11032300 0.09988560
0.70305900 0.11032300 0.09988560
0.70305900 0.11032300 0.09988560
0.70305900 0.11032300 0.09988560
0.70305900 0.11032300 0.09988560
0.70305900 0.11032300 0.09988560
0.70305900 0.11032300 0.09988560
0.70305900 0.11032300 0.09988560
0.70305900 0.11032300 0.09988560
0.70305900 0.11032300 0.09988560
0.70305900 0.11032300 0.09988560
0.70305900 0.11032300 0.09988560
0.70305900 0.11032300 0.09988560
0.70305900 0.11032300 0.09988560
0.70305900 0.11032300 0.09988560
0.20925818 0.28950207 0.04467951
0.20925818 0.28950207 0.04467951
0.20925818 0.28950207 0.04467951
0.20928725 0.28956012 0.04469316
0.20814499 0.28740216 0.04432000
0.19892300 0.27478034 0.04326828
0.23675895 0.26683319 0.04337073
0.29854879 0.25392716 0.04222073
0.38204561 0.23287023 0.04169355
0.45282577 0.20758993 0.04616132
0.51815381 0.17781582 0.05456715
0.58035465 0.14790413 0.05709786
0.63761444 0.12749471 0.06086582
0.68842842 0.12667742 0.08077663
0.72074584 0.12304045 0.10167179
0.71982480 0.12215256 0.09502194
0.71610508 0.12032731 0.09286891
0.71136760 0.11722034 0.09701249
0.71162263 0.11497145 0.09694581
0.70699801 0.11479350 0.10019066
0.70392476 0.11293846 0.10095836
0.70311295 0.11048076 0.09995985
0.70229709 0.10760132 0.09873009
0.70162106 0.10508650 0.09771066
0.70305900 0.11032300 0.09988560
0.70305900 0.11032300 0.09988560
0.70305900 0.11032300 0.09988560
0.70305900 0.11032300 0.09988560
0.70305900 0.11032300 0.09988560
0.70305900 0.11032300 0.09988560
0.70305900 0.11032300 0.09988560
0.70305900 0.11032300 0.09988560
0.70305900 0.11032300 0.09988560
0.24829664 0.34436750 0.03977046
0.24829664 0.34436750 0.03977046
0.24829664 0.34436750 0.03977046
0.24829664 0.34442723 0.03974657
0.24829533 0.34253589 0.04051621
0.24170805 0.33149398 0.04480200
0.24686891 0.32050907 0.04199638
0.29222150 0.31545787 0.04128874
0.35510974 0.30071884 0.04279011
0.43465985 0.27914521 0.04523557
0.50522767 0.25767407 0.04998162
0.56858762 0.22940976 0.06278078
0.62377927 0.20172899 0.07085882
0.67816340 0.18732292 0.08095827
0.72655198 0.17862295 0.08667106
0.72691149 0.18438983 0.07863043
0.72066433 0.17540325 0.07149446
0.71860315 0.15937906 0.07209842
0.72727059 0.14200555 0.08297031
0.73470788 0.12853270 0.10149905
0.72511408 0.12484091 0.10502468
0.72170754 0.12365315 0.10382132
0.72255790 0.12388255 0.10016390
0.72249710 0.12374556 0.09665353
0.72166370 0.12333540 0.09297454
0.72102355 0.12301837 0.09010756
0.71972883 0.12233039 0.08950537
0.71800087 0.12138625 0.09094135
0.71646633 0.12054107 0.09221386
0.71583968 0.12020008 0.09272870
0.71593960 0.12024801 0.09263970
0.71597175 0.12026420 0.09262803
0.71596515 0.12027129 0.09263363
0.28709117 0.39769384 0.04808986
0.28709117 0.39769384 0.04808986
0.28709117 0.39769384 0.04808986
0.28709117 0.39768701 0.04809157
0.28581456 0.39573709 0.04788589
0.27575699 0.38312192 0.04610263
0.27395299 0.37805057 0.04762600
0.29475033 0.36879793 0.04489315
0.34143974 0.35794378 0.04310239
0.41074927 0.34936317 0.03762885
0.48953309 0.32651578 0.04804241
0.54756125 0.30479600 0.05693659
0.61154456 0.27836591 0.06272490
0.67572236 0.25273744 0.07562082
0.73217430 0.23590662 0.08967879
0.75502168 0.22551067 0.09043239
0.75043668 0.21540197 0.09307890
0.74490387 0.21321974 0.09077818
0.73446992 0.21071681 0.08750542
0.73840321 0.20341671 0.09154137
0.73977865 0.19543014 0.09314027
0.73539115 0.18713624 0.09094293
0.73336499 0.18367543 0.08899561
0.73241986 0.18218532 0.08720536
0.73130046 0.18143884 0.08543419
0.72894520 0.18270517 0.08174665
0.72675951 0.18372662 0.07833682
0.72502499 0.18454954 0.07577515
0.72300820 0.18596413 0.07388012
0.72269743 0.18548016 0.07363155
0.72265496 0.18522427 0.07357878
0.72269612 0.18545799 0.07363075
0.72266847 0.18528721 0.07359761
0.31183206 0.44380763 0.05077672
0.31183206 0.44380763 0.05077672
0.31183206 0.44380763 0.05077672
0.31182524 0.44379734 0.05077502
0.31057742 0.44185815 0.05065942
0.31089139 0.43334147 0.05267030
0.30398657 0.42543062 0.05129981
0.31212621 0.41527738 0.04684309
0.33773678 0.40866254 0.04665739
0.39367339 0.40077458 0.03900841
0.46213375 0.38816336 0.04033662
0.52750885 0.37231893 0.04719511
0.59516572 0.34753708 0.06386912
0.65523250 0.33006979 0.07560262
0.71814239 0.30878469 0.08909636
0.76684787 0.29694993 0.09481826
0.76888568 0.28622993 0.09681146
0.76425816 0.28097817 0.09369316
0.76162603 0.27253620 0.08807597
0.76144377 0.26184964 0.08744868
0.76093267 0.25188425 0.08906431
0.75913941 0.24782177 0.09007482
0.75771836 0.24450722 0.08968584
0.75582643 0.23894825 0.08750635
0.75273989 0.23536029 0.08639967
0.75128095 0.23194656 0.08672938
0.75130534 0.22919777 0.08739971
0.75214598 0.22664879 0.08863677
0.75269917 0.22469071 0.08956852
0.75295781 0.22396435 0.08993010
0.75303635 0.22362942 0.09008532
0.75305014 0.22380728 0.09002590
0.75303110 0.22374729 0.09004475
0.34544493 0.49891323 0.06103029
0.34544493 0.49891323 0.06103029
0.34544493 0.49891323 0.06103029
0.34545522 0.49897978 0.06103882
0.34514346 0.49744432 0.06072360
0.34098317 0.48531209 0.05604117
0.33350713 0.47656578 0.05524332
0.33407050 0.46625630 0.05609766
0.35053787 0.45652814 0.05474298
0.38612842 0.44783740 0.04978865
0.44439667 0.43855248 0.04534789
0.50971908 0.42828004 0.04093557
0.57680079 0.41096935 0.05239320
0.63807766 0.39210400 0.06679769
0.70422130 0.37727379 0.07919164
0.76722179 0.36457157 0.09298166
0.78832232 0.35775899 0.09188044
0.78836036 0.34738304 0.09606229
0.78116942 0.33959255 0.10003941
0.77915361 0.33046763 0.09698948
0.77888720 0.32355525 0.09785999
0.77722282 0.31733368 0.10006639
0.77625562 0.31146002 0.09997005
0.77489497 0.30746956 0.09883658
0.77292676 0.30525290 0.09759210
0.77100458 0.30281208 0.09653230
0.76974419 0.30058728 0.09520376
0.76857757 0.29863093 0.09408268
0.76815761 0.29678237 0.09310785
0.76814220 0.29597779 0.09285513
0.76810868 0.29617276 0.09290097
0.76813302 0.29627925 0.09283338
0.76816838 0.29580777 0.09282277
0.38057905 0.56450030 0.05913762
0.38057905 0.56450030 0.05913762
0.38057905 0.56450030 0.05913762
0.38061999 0.56456852 0.05909666
0.37939685 0.56296219 0.05818500
0.37409481 0.54900180 0.05691515
0.36837483 0.53396598 0.06233145
0.36116837 0.52477730 0.06495918
0.37415452 0.51301252 0.05838271
0.39573862 0.50215459 0.05626934
0.43938766 0.49180959 0.05294170
0.49209813 0.47973130 0.04457329
0.55652280 0.46937829 0.04203189
0.62355958 0.45451773 0.04834611
0.68934225 0.44180036 0.05476150
0.75749689 0.42525168 0.07391830
0.83061662 0.40792151 0.07727926
0.83395612 0.39328605 0.07464594
0.83092510 0.38503029 0.07174791
0.81505319 0.38713904 0.07513464
0.80333381 0.38691366 0.07921264
0.79663171 0.38216446 0.08050001
0.79913563 0.37736797 0.08179458
0.80187099 0.37339112 0.08320499
0.80029381 0.37017951 0.08646197
0.79721513 0.36774507 0.09005536
0.79428167 0.36563116 0.09367947
0.79210260 0.36384722 0.09596967
0.79087773 0.36187203 0.09557471
0.79060621 0.36122267 0.09528557
0.79059391 0.36087260 0.09513752
0.79061762 0.36110239 0.09523576
0.79063780 0.36088722 0.09514374
0.40943919 0.63906499 0.03218864
0.40943919 0.63906499 0.03218864
0.40943919 0.63906499 0.03218864
0.40945798 0.63912975 0.03211014
0.40835608 0.63571900 0.03596076
0.39999364 0.61679582 0.04589669
0.39297702 0.60427042 0.04903128
0.38885811 0.59017078 0.05495236
0.39467487 0.57594168 0.05105184
0.41095964 0.56318637 0.05182389
0.44461386 0.54893642 0.05252189
0.49219376 0.54052436 0.05044355
0.54932827 0.52659413 0.04505217
0.61809567 0.51209877 0.03660350
0.67788876 0.50294829 0.03763711
0.74264480 0.48882853 0.05348042
0.81064711 0.47766172 0.05891436
0.85418987 0.45937289 0.06577035
0.85175315 0.45274485 0.06424198
0.85112168 0.44431918 0.06813254
0.85034719 0.43593681 0.07259497
0.84728518 0.42965714 0.07552669
0.84661125 0.42354909 0.07569730
0.84588045 0.41845292 0.07565706
0.84533487 0.41482318 0.07455076
0.84430316 0.41253353 0.07384219
0.84340869 0.41043857 0.07309583
0.84211587 0.40847972 0.07277565
0.84019860 0.40726137 0.07284170
0.83942038 0.40707460 0.07287129
0.83924825 0.40693483 0.07287129
0.83922139 0.40711963 0.07287128
0.83912638 0.40693495 0.07287556
0.42491842 0.71866703 0.00077051
0.42491842 0.71866703 0.00077051
0.42491842 0.71866703 0.00077051
0.42491842 0.71866703 0.00077051
0.42481528 0.71689511 0.00112463
0.42163821 0.70041061 0.00485854
0.41764276 0.68225592 0.00790390
0.41791412 0.66653797 0.01824382
0.41301644 0.64579680 0.03470954
0.42791311 0.62792818 0.03313217
0.45892766 0.61399924 0.03392484
0.49881432 0.60077354 0.03421337
0.54973013 0.58867554 0.03160783
0.61242405 0.57876761 0.02611770
0.66969294 0.56280736 0.01733585
0.73171515 0.54820526 0.02373611
0.80014358 0.53573617 0.02693722
0.85970047 0.52554492 0.02876842
0.86597908 0.51408311 0.02686623
0.86130617 0.50599874 0.03037081
0.86399821 0.49842633 0.03440111
0.86456471 0.49176822 0.04260424
0.86228664 0.48643176 0.05297610
0.85918051 0.48220642 0.05700573
0.85702990 0.47937461 0.05498425
0.85539189 0.47718165 0.05390783
0.85468385 0.47506761 0.05367282
0.85461629 0.47283709 0.05489588
0.85463768 0.47066778 0.05633213
0.85478576 0.47000222 0.05678400
0.85480927 0.47008634 0.05673017
0.85475492 0.47023457 0.05662394
0.85476154 0.47002334 0.05676959
0.43469900 0.74839400 0.00000000
0.43469900 0.74839400 0.00000000
0.43469900 0.74839400 0.00000000
0.43469900 0.74839400 0.00000000
0.43469900 0.74839400 0.00000000
0.43462155 0.74814080 0.00000000
0.43222635 0.74092330 0.00000000
0.43057541 0.73649178 0.00017716
0.42851800 0.72558307 0.00201662
0.43797363 0.70674042 0.00224922
0.46381088 0.69030100 0.00354919
0.50750924 0.67118977 0.00755137
0.55602974 0.65729078 0.00575538
0.61084000 0.64383497 0.00838607
0.66884849 0.62542328 0.00505191
0.72801219 0.61310001 0.00383337
0.78586041 0.59890368 0.00582057
0.84841185 0.58767482 0.01053219
0.87034503 0.58505843 0.00435080
0.86607399 0.57547453 0.00302858
0.86240097 0.56933414 0.00369572
0.86130537 0.56377722 0.00738440
0.87351564 0.55280787 0.01808468
0.88138737 0.54368447 0.02338651
0.87785695 0.53928688 0.02072370
0.87367316 0.53624350 0.01739713
0.87044148 0.53359421 0.01644177
0.86841341 0.53160019 0.01657903
0.86779665 0.52989054 0.01703917
0.86746903 0.52915773 0.01740856
0.86754188 0.52905822 0.01739593
0.86746254 0.52901310 0.01744955
0.86752019 0.52908276 0.01739333
0.43469900 0.74839400 0.00000000
0.43469900 0.74839400 0.00000000
0.43469900 0.74839400 0.00000000
0.43469900 0.74839400 0.00000000
0.43469900 0.74839400 0.00000000
0.43469900 0.74839400 0.00000000
0.43469900 0.74839400 0.00000000
0.43469900 0.74839400 0.00000000
0.43469900 0.74839400 0.00000000
0.43946215 0.74866405 0.00000000
0.47021171 0.75102610 0.00000000
0.51052225 0.74501484 0.00000000
0.55654351 0.73415636 0.00000000
0.60977435 0.71882941 0.00000000
0.67194681 0.70184505 0.00000000
0.73966943 0.68524904 0.00000000
0.79763533 0.66778879 0.00000000
0.84471587 0.64904916 0.00000000
0.87952767 0.64684736 0.00000000
0.87706772 0.63709841 0.00000000
0.87124558 0.62828174 0.00000000
0.86929213 0.62284605 0.00000000
0.86810870 0.61845355 0.00000000
0.86775496 0.61400409 0.00000000
0.86738673 0.60961629 0.00000000
0.86692920 0.60598497 0.00000000
0.86602673 0.60219823 0.00000000
0.86527993 0.59939048 0.00000000
0.86453486 0.59655231 0.00000000
0.86433453 0.59553369 0.00000000
0.86438116 0.59573464 0.00000000
0.86432175 0.59543882 0.00000000
0.86435689 0.59570010 0.00000000
0.43469900 0.74839400 0.00000000
0.43469900 0.74839400 0.00000000
0.43469900 0.74839400 0.00000000
0.43469900 0.74839400 0.00000000
0.43469900 0.74839400 0.00000000
0.43469900 0.74839400 0.00000000
0.43469900 0.74839400 0.00000000
0.43469900 0.74839400 0.00000000
0.43469900 0.74839400 0.00000000
0.43544752 0.75075503 0.00000000
0.45982074 0.75067241 0.00000000
0.49865444 0.75467873 0.00000000
0.54947719 0.76238011 0.00000000
0.60486924 0.76539356 0.00000000
0.67243660 0.76595784 0.00000000
0.74705757 0.75945283 0.00000000
0.81925846 0.74770272 0.00000000
0.87775688 0.73002245 0.00000000
0.93469729 0.71902258 0.00000000
0.93165669 0.70915301 0.00000000
0.92378523 0.69748295 0.00000000
0.91210506 0.68858426 0.00000000
0.89942220 0.68241511 0.00000000
0.89408999 0.67563967 0.00000000
0.89328245 0.66899449 0.00000000
0.89237152 0.66335988 0.00000000
0.89123284 0.65908353 0.00000000
0.88938895 0.65576029 0.00000000
0.88801633 0.65298208 0.00000000
0.88734663 0.65205435 0.00000000
0.88741814 0.65205758 0.00000000
0.88726890 0.65185445 0.00000000
0.88735492 0.65201115 0.00000000
0.43469900 0.74839400 0.00000000
0.43469900 0.74839400 0.00000000
0.43469900 0.74839400 0.00000000
0.43469900 0.74839400 0.00000000
0.43469900 0.74839400 0.00000000
0.43469900 0.74839400 0.00000000
0.43469900 0.74839400 0.00000000
0.43469900 0.74839400 0.00000000
0.43469900 0.74839400 0.00000000
0.43415552 0.75122254 0.00000000
0.45049471 0.75057963 0.00000000
0.49142860 0.75235642 0.00000000
0.53438464 0.75875657 0.00000000
0.59148166 0.76504819 0.00000000
0.65611656 0.77642396 0.00000000
0.72153203 0.78288812 0.00000000
0.81057826 0.78212817 0.00000000
0.88728273 0.78566184 0.00000000
0.96054784 0.78092289 0.00000000
0.99575715 0.76987320 0.00028377
0.98795396 0.76819246 0.00000000
0.97858766 0.76239579 0.00000000
0.97143666 0.75563867 0.00000000
0.96466801 0.74627831 0.00000000
0.95891288 0.73785419 0.00000000
0.95391188 0.73125023 0.00000000
0.94981381 0.72668280 0.00000000
0.94622624 0.72258497 0.00000000
0.94385720 0.71995481 0.00000000
0.94274348 0.71870609 0.00000000
0.94292056 0.71888575 0.00000000
0.94264990 0.71862108 0.00000000
0.94296974 0.71892155 0.00000000
0.43469900 0.74839400 0.00000000
0.43469900 0.74839400 0.00000000
0.43469900 0.74839400 0.00000000
0.43469900 0.74839400 0.00000000
0.43469900 0.74839400 0.00000000
0.43469900 0.74839400 0.00000000
0.43469900 0.74839400 0.00000000
0.43469900 0.74839400 0.00000000
0.43469900 0.74839400 0.00000000
0.43478476 0.74792230 0.00000000
0.44388175 0.74802693 0.00000000
0.48354332 0.75167919 0.00000000
0.52856255 0.75711865 0.00000000
0.57756094 0.76524151 0.00000000
0.64060298 0.77439989 0.00000000
0.70695372 0.77850116 0.00000000
0.78483422 0.78325254 0.00000000
0.87079364 0.78253545 0.00000000
0.94250601 0.78349531 0.00000000
0.99669304 0.78575723 0.00021790
1.00000000 0.77444100 0.00077821
1.00000000 0.77444100 0.00077821
1.00000000 0.77444100 0.00077821
1.00000000 0.77444100 0.00077821
1.00000000 0.77415516 0.00060243
0.99997196 0.77370041 0.00035207
0.99833676 0.77350584 0.00021790
0.99497944 0.77368284 0.00021790
0.99261252 0.77318101 0.00021790
0.99153258 0.77234475 0.00021790
0.99137585 0.77222197 0.00021790
0.99155891 0.77237130 0.00021790
0.99157361 0.77238659 0.00021790
0.43469900 0.74839400 0.00000000
0.43469900 0.74839400 0.00000000
0.43469900 0.74839400 0.00000000
0.43469900 0.74839400 0.00000000
0.43469900 0.74839400 0.00000000
0.43469900 0.74839400 0.00000000
0.43469900 0.74839400 0.00000000
0.43469900 0.74839400 0.00000000
0.43469900 0.74839400 0.00000000
0.43469900 0.74839400 0.00000000
0.43901627 0.74890114 0.00000000
0.47615890 0.75159768 0.00000000
0.51916370 0.75872657 0.00000000
0.56757435 0.76574740 0.00000000
0.62449814 0.76837443 0.00000000
0.69259754 0.77644295 0.00000000
0.76941702 0.77970084 0.00000000
0.84559621 0.78452339 0.00000000
0.92102365 0.78424163 0.00000000
0.98132845 0.78486839 0.00008118
1.00000000 0.77444100 0.00077821
1.00000000 0.77444100 0.00077821
1.00000000 0.77444100 0.00077821
1.00000000 0.77444100 0.00077821
1.00000000 0.77444100 0.00077821
1.00000000 0.77444100 0.00077821
1.00000000 0.77444100 0.00077821
1.00000000 0.77444100 0.00077821
1.00000000 0.77444100 0.00077821
1.00000000 0.77444100 0.00077821
1.00000000 0.77444100 0.00077821
1.00000000 0.77444100 0.00077821
1.00000000 0.77444100 0.00077821
0.43469900 0.74839400 0.00000000
0.43469900 0.74839400 0.00000000
0.43469900 0.74839400 0.00000000
0.43469900 0.74839400 0.00000000
0.43469900 0.74839400 0.00000000
0.43469900 0.74839400 0.00000000
0.43469900 0.74839400 0.00000000
0.43469900 0.74839400 0.00000000
0.43469900 0.74839400 0.00000000
0.43469900 0.74839400 0.00000000
0.43870260 0.74907215 0.00000000
0.46995527 0.75054464 0.00000000
0.50937884 0.75583375 0.00000000
0.55698731 0.76415158 0.00000000
0.61594958 0.76753437 0.00000000
0.67813329 0.77881887 0.00000000
0.74151627 0.78490783 0.00000000
0.82666421 0.78546511 0.00000000
0.90165993 0.78639241 0.00000000
0.96543110 0.78512106 0.00000000
0.99828610 0.77991013 0.00050422
1.00000000 0.77444100 0.00077821
1.00000000 0.77444100 0.00077821
1.00000000 0.77444100 0.00077821
1.00000000 0.77444100 0.00077821
1.00000000 0.77444100 0.00077821
