GameSystems/MossSystem/CanonCF_Bright_Amber_CLog3_to_709_33.cube
# Bright Amber
# Input Color Space : Canon Log 3 / Cinema Gamut
# Output Color Space : BT.709
# Creation Date : 2025-07-07
# ```
# {
#   "custom_picture": {
#     "reset": "canon_log_3",
#     "with_look_file": "sdr_bt709"
#   }
# }
# ```
LUT_3D_SIZE 9
0.06712440 0.04870680 0.03768980
0.08403701 0.04449975 0.03708067
0.42805303 0.05205991 0.03954355
0.67183361 0.09550980 0.09368854
0.70305900 0.11032300 0.09988560
0.70305900 0.11032300 0.09988560
0.70305900 0.11032300 0.09988560
0.70305900 0.11032300 0.09988560
0.70305900 0.11032300 0.09988560
0.07077457 0.06233828 0.04689665
0.08674900 0.06068176 0.03463269
0.43159667 0.04821792 0.04962453
0.66835174 0.09468754 0.09185977
0.70305900 0.11032300 0.09988560
0.70305900 0.11032300 0.09988560
0.70305900 0.11032300 0.09988560
0.70305900 0.11032300 0.09988560
0.70305900 0.11032300 0.09988560
0.24829664 0.34436750 0.03977046
0.24829533 0.34253589 0.04051621
0.35510974 0.30071884 0.04279011
0.62377927 0.20172899 0.07085882
0.72066433 0.17540325 0.07149446
0.72511408 0.12484091 0.10502468
0.72166370 0.12333540 0.09297454
0.71646633 0.12054107 0.09221386
0.71596515 0.12027129 0.09263363
0.38057905 0.56450030 0.05913762
0.37939685 0.56296219 0.05818500
0.37415452 0.51301252 0.05838271
0.55652280 0.46937829 0.04203189
0.83061662 0.40792151 0.07727926
0.80333381 0.38691366 0.07921264
0.80029381 0.37017951 0.08646197
0.79087773 0.36187203 0.09557471
0.79063780 0.36088722 0.09514374
0.43469900 0.74839400 0.00000000
0.43469900 0.74839400 0.00000000
0.43469900 0.74839400 0.00000000
0.55654351 0.73415636 0.00000000
0.79763533 0.66778879 0.00000000
0.87124558 0.62828174 0.00000000
0.86738673 0.60961629 0.00000000
0.86453486 0.59655231 0.00000000
0.86435689 0.59570010 0.00000000
0.43469900 0.74839400 0.00000000
0.43469900 0.74839400 0.00000000
0.43469900 0.74839400 0.00000000
0.51916370 0.75872657 0.00000000
0.76941702 0.77970084 0.00000000
1.00000000 0.77444100 0.00077821
1.00000000 0.77444100 0.00077821
1.00000000 0.77444100 0.00077821
1.00000000 0.77444100 0.00077821
0.43469900 0.74839400 0.00000000
0.43469900 0.74839400 0.00000000
0.43469900 0.74839400 0.00000000
0.49306998 0.75266390 0.00000000
0.71680404 0.77836944 0.00000000
0.98075491 0.78740436 0.00000000
1.00000000 0.77444100 0.00077821
1.00000000 0.77444100 0.00077821
1.00000000 0.77444100 0.00077821
0.43469900 0.74839400 0.00000000
0.43469900 0.74839400 0.00000000
0.43469900 0.74839400 0.00000000
0.48545777 0.75189023 0.00000000
0.69062799 0.77850209 0.00000000
0.95024743 0.78370307 0.00000000
1.00000000 0.77444100 0.00077821
1.00000000 0.77444100 0.00077821
1.00000000 0.77444100 0.00077821
0.43469900 0.74839400 0.00000000
0.43469900 0.74839400 0.00000000
0.43469900 0.74839400 0.00000000
0.48439949 0.75172207 0.00000000
0.68868098 0.77779376 0.00000000
0.94837847 0.78379244 0.00000000
1.00000000 0.77444100 0.00077821
1.00000000 0.77444100 0.00077821
1.00000000 0.77444100 0.00077821
0.06634578 0.04408095 0.05507578
0.07297638 0.05094800 0.04357487
0.43323460 0.04898831 0.05000589
0.67204637 0.09218614 0.09323376
0.70305900 0.11032300 0.09988560
0.70305900 0.11032300 0.09988560
0.70305900 0.11032300 0.09988560
0.70305900 0.11032300 0.09988560
0.70305900 0.11032300 0.09988560
0.05571455 0.05482951 0.05246210
0.07623500 0.05761502 0.04093928
0.42978065 0.04703670 0.04805623
0.66719818 0.09454388 0.09166205
0.70305900 0.11032300 0.09988560
0.70305900 0.11032300 0.09988560
0.70305900 0.11032300 0.09988560
0.70305900 0.11032300 0.09988560
0.70305900 0.11032300 0.09988560
0.24829465 0.34312050 0.04028106
0.24829334 0.34074500 0.04125108
0.35330414 0.29902588 0.04264883
0.62222653 0.20027857 0.07089287
0.72016771 0.17260892 0.07111431
0.72359959 0.12432829 0.10523604
0.72135408 0.12318003 0.09155769
0.71524092 0.11987608 0.09323764
0.71471467 0.11957527 0.09366956
0.37965216 0.56326356 0.05847087
0.37843717 0.56173815 0.05745007
0.37312579 0.51160526 0.05810531
0.55545420 0.46861487 0.04189767
0.82879595 0.40638730 0.07808197
0.80172717 0.38580148 0.07952544
0.79915197 0.36926686 0.08778069
0.79008978 0.36060140 0.09498555
0.78984999 0.35956086 0.09453870
0.43469900 0.74839400 0.00000000
0.43469900 0.74839400 0.00000000
0.43469900 0.74839400 0.00000000
0.55457128 0.73213197 0.00000000
0.79504225 0.66552849 0.00000000
0.87057569 0.62677993 0.00000000
0.86724147 0.60802286 0.00000000
0.86401956 0.59450752 0.00000000
0.86379453 0.59357200 0.00000000
0.43469900 0.74839400 0.00000000
0.43469900 0.74839400 0.00000000
0.43469900 0.74839400 0.00000000
0.51820273 0.75869185 0.00000000
0.76815623 0.77977040 0.00000000
1.00000000 0.77444100 0.00077821
1.00000000 0.77444100 0.00077821
1.00000000 0.77444100 0.00077821
1.00000000 0.77444100 0.00077821
0.43469900 0.74839400 0.00000000
0.43469900 0.74839400 0.00000000
0.43469900 0.74839400 0.00000000
0.49296401 0.75268835 0.00000000
0.71616063 0.77813936 0.00000000
0.97986666 0.78731646 0.00000000
1.00000000 0.77444100 0.00077821
1.00000000 0.77444100 0.00077821
1.00000000 0.77444100 0.00077821
0.43469900 0.74839400 0.00000000
0.43469900 0.74839400 0.00000000
0.43469900 0.74839400 0.00000000
0.48473262 0.75173186 0.00000000
0.68941736 0.77804034 0.00000000
0.94881443 0.78356868 0.00000000
1.00000000 0.77444100 0.00077821
1.00000000 0.77444100 0.00077821
1.00000000 0.77444100 0.00077821
0.43469900 0.74839400 0.00000000
0.43469900 0.74839400 0.00000000
0.43469900 0.74839400 0.00000000
0.48369404 0.75158784 0.00000000
0.68747423 0.77734468 0.00000000
0.94698676 0.78384099 0.00000000
1.00000000 0.77444100 0.00077821
1.00000000 0.77444100 0.00077821
1.00000000 0.77444100 0.00077821
0.15392937 0.10030121 0.25195317
0.15378887 0.10031917 0.25224746
0.42125166 0.11839885 0.25689695
0.68696948 0.20539797 0.25294943
0.74805128 0.20421841 0.25831231
0.74833376 0.20418667 0.26202740
0.74779527 0.20308546 0.25741064
0.74738466 0.20234997 0.25377801
0.74737172 0.20234213 0.25372202
0.15639949 0.10007811 0.24718248
0.15651122 0.10006572 0.24697112
0.41820305 0.11860826 0.25584705
0.68470688 0.20563884 0.25017500
0.74821725 0.20420553 0.26052663
0.74783438 0.20315078 0.25766255
0.74696407 0.20177709 0.25043686
0.74646217 0.20107865 0.24649936
0.74641530 0.20101454 0.24609520
0.24729076 0.30731527 0.19957850
0.24685549 0.30473594 0.20026964
0.33681183 0.25703613 0.18108848
0.60487243 0.20845306 0.17259135
0.75911273 0.16933402 0.16636500
0.75053642 0.15143255 0.16253892
0.75008930 0.13961275 0.16404393
0.75613528 0.13600867 0.16025981
0.75652229 0.13582324 0.16012057
0.35743245 0.53027632 0.07619826
0.35553393 0.52920958 0.07438378
0.34685631 0.47968826 0.07105029
0.52887834 0.44062441 0.05501864
0.78224595 0.37906522 0.10217732
0.80511086 0.34047062 0.10418068
0.79902453 0.32507125 0.10473046
0.78246699 0.31984170 0.09746575
0.78193572 0.31919445 0.09755300
0.43469900 0.74839400 0.00000000
0.43469900 0.74839400 0.00000000
0.43085736 0.73620617 0.00000000
0.51835645 0.66689544 0.00071039
0.73949623 0.61545060 0.00402232
0.85621239 0.58655851 0.00059949
0.87492416 0.55357129 0.00922232
0.87013660 0.54386041 0.00927223
0.87007819 0.54319586 0.00951786
0.43469900 0.74839400 0.00000000
0.43469900 0.74839400 0.00000000
0.43469900 0.74839400 0.00000000
0.50100641 0.75341151 0.00000000
0.72817576 0.78119667 0.00000000
0.99402317 0.78675063 0.00003955
0.99336767 0.77128657 0.00050422
0.98861308 0.76394025 0.00006541
0.98790638 0.76296650 0.00002953
0.43469900 0.74839400 0.00000000
0.43469900 0.74839400 0.00000000
0.43469900 0.74839400 0.00000000
0.47988039 0.75097384 0.00000000
0.68012390 0.77526668 0.00000000
0.93974712 0.78486527 0.00000000
1.00000000 0.77444100 0.00077821
1.00000000 0.77444100 0.00077821
1.00000000 0.77444100 0.00077821
0.43469900 0.74839400 0.00000000
0.43469900 0.74839400 0.00000000
0.43469900 0.74839400 0.00000000
0.47005141 0.75056894 0.00000000
0.66286457 0.77623476 0.00000000
0.91027765 0.78197815 0.00000000
1.00000000 0.77444100 0.00077821
1.00000000 0.77444100 0.00077821
1.00000000 0.77444100 0.00077821
0.43469900 0.74839400 0.00000000
0.43469900 0.74839400 0.00000000
0.43469900 0.74839400 0.00000000
0.46921214 0.75096244 0.00000000
0.66161488 0.77617293 0.00000000
0.90914298 0.78203232 0.00000000
1.00000000 0.77444100 0.00077821
1.00000000 0.77444100 0.00077821
1.00000000 0.77444100 0.00077821
0.25467242 0.16062098 0.45160978
0.25455829 0.16071881 0.45195000
0.36977030 0.18392343 0.45173367
0.69767983 0.14262377 0.43995356
0.77372630 0.16691151 0.42158890
0.77445059 0.16716978 0.41812260
0.77704817 0.16605794 0.41694247
0.77815106 0.16558681 0.41643922
0.77813232 0.16570804 0.41642209
0.25540421 0.16004809 0.44875236
0.25538107 0.16009608 0.44857522
0.36639683 0.18312721 0.44792883
0.69500642 0.14323428 0.43809594
0.77295354 0.16791150 0.41938647
0.77651763 0.16639647 0.41718774
0.77846713 0.16573863 0.41521431
0.77908183 0.16569627 0.41350955
0.77917430 0.16562626 0.41325374
0.31242464 0.27595092 0.36259350
0.31030507 0.27451195 0.36182451
0.31439517 0.23224133 0.36047473
0.57571711 0.19843224 0.36079179
0.76601126 0.19404347 0.35432989
0.76448841 0.20354675 0.34511767
0.75840263 0.20481359 0.34183570
0.75548071 0.20542413 0.34025673
0.75540189 0.20542881 0.34020448
0.37986713 0.47883151 0.31254927
0.38089107 0.47614854 0.31124011
0.36766183 0.43334088 0.31247775
0.50776365 0.39698181 0.29593517
0.73542021 0.36354603 0.29907863
0.78618224 0.33482294 0.30315202
0.77712919 0.32011618 0.29903757
0.77292640 0.31319930 0.29400333
0.77247832 0.31314173 0.29306119
0.26942255 0.76485436 0.10292867
0.26883599 0.76452860 0.10231293
0.33283673 0.69341104 0.17037811
0.48124888 0.61786996 0.17549489
0.70908666 0.56318873 0.16243497
0.88938012 0.52760689 0.16655206
0.88450449 0.50664744 0.17242494
0.88082156 0.49723054 0.17682486
0.88017137 0.49686989 0.17698962
0.35104274 0.75392034 0.05003408
0.35101787 0.75368952 0.04986878
0.35635859 0.76150384 0.04504495
0.43932392 0.76645230 0.02589140
0.68885142 0.77938615 0.00000536
0.92354789 0.74287280 0.00000000
0.95920435 0.70448284 0.00153397
0.95178544 0.68713576 0.01128503
0.95145121 0.68602766 0.01388178
0.38824803 0.75794795 0.02563964
0.38799333 0.75810624 0.02556532
0.39242716 0.75758886 0.02867100
0.44307804 0.76023756 0.01451172
0.64429028 0.77943454 0.00003110
0.89222349 0.78810211 0.00000000
1.00000000 0.78919055 0.00008008
1.00000000 0.78829885 0.00014072
1.00000000 0.78825141 0.00014756
0.39119239 0.75858746 0.02443985
0.39118989 0.75863397 0.02458410
0.40044049 0.75512223 0.02117118
0.43339091 0.75767223 0.01193232
0.62774830 0.77420264 0.00000054
0.85836423 0.78563744 0.00000000
1.00000000 0.78310995 0.00026063
1.00000000 0.78480656 0.00019504
1.00000000 0.78481313 0.00018954
0.39197164 0.75788200 0.02330407
0.39189002 0.75800197 0.02355648
0.40320530 0.75493692 0.02150097
0.43226389 0.75795250 0.01162742
0.62666601 0.77363505 0.00000000
0.85609964 0.78497306 0.00000000
1.00000000 0.78471900 0.00019125
1.00000000 0.78670910 0.00012223
1.00000000 0.78717132 0.00011631
0.26866600 0.17164900 0.54956900
0.26866600 0.17164900 0.54956900
0.36852549 0.17795021 0.55940169
0.67799406 0.14117431 0.55951708
0.78870800 0.07067980 0.51955400
0.78870800 0.07067980 0.51955400
0.78870800 0.07067980 0.51955400
0.78870800 0.07067980 0.51955400
0.78870800 0.07067980 0.51955400
0.26866600 0.17164900 0.54956900
0.26866600 0.17164900 0.54956900
0.36737988 0.17787996 0.55933081
0.67389500 0.14501864 0.56055064
0.78870800 0.07067980 0.51955400
0.78870800 0.07067980 0.51955400
0.78870800 0.07067980 0.51955400
0.78870800 0.07067980 0.51955400
0.78870800 0.07067980 0.51955400
0.30017876 0.24084150 0.56935377
0.29944671 0.23998807 0.56890138
0.31650511 0.20839282 0.56207326
0.55200876 0.18582941 0.56758636
0.78870800 0.07067980 0.51955400
0.78870800 0.07067980 0.51955400
0.78870800 0.07067980 0.51955400
0.78870800 0.07067980 0.51955400
0.78870800 0.07067980 0.51955400
0.37949800 0.45223703 0.52296362
0.38002468 0.45122154 0.52272383
0.37336862 0.41132973 0.50571766
0.48001664 0.37011909 0.48941635
0.74678092 0.30959192 0.47298675
0.80268839 0.27802386 0.44769756
0.80376397 0.27194995 0.44846254
0.79925965 0.26335252 0.44567991
0.79852131 0.26259026 0.44548295
0.35492820 0.71713248 0.51041952
0.35780759 0.71481549 0.50999373
0.40784454 0.63125794 0.47366377
0.45812571 0.56953074 0.43576332
0.66314491 0.52160619 0.39164901
0.85966708 0.49435353 0.41409345
0.84868602 0.47860417 0.42845662
0.84995596 0.46939257 0.40947717
0.84934382 0.46884840 0.40886748
0.18085894 0.75548356 0.41066377
0.18124724 0.75541157 0.41066630
0.15301902 0.75652623 0.39113505
0.13883798 0.75337053 0.35322734
0.60227089 0.74390859 0.27602335
0.86824674 0.68124187 0.25075207
0.95799221 0.64995098 0.24615238
0.94729122 0.63610544 0.26744115
0.94643029 0.63549069 0.26826338
0.15319757 0.75058221 0.34039634
0.15321933 0.75064437 0.34021328
0.15557877 0.75512940 0.31786434
0.15853789 0.75655684 0.29877551
0.54211137 0.79550222 0.18507868
0.85600736 0.80566019 0.02980267
1.00000000 0.79977668 0.23041865
1.00000000 0.79378625 0.25454309
1.00000000 0.79262389 0.25188231
0.16895506 0.74982491 0.30812788
0.16850192 0.74990338 0.30785390
0.15317552 0.75163559 0.29437659
0.17388121 0.75531058 0.26004484
0.52334633 0.79689138 0.15221868
0.81648648 0.80584200 0.01199952
0.98525692 0.80790973 0.08005938
1.00000000 0.80626042 0.17326435
1.00000000 0.80623125 0.17327486
0.16543258 0.75040546 0.30510874
0.16545639 0.75040511 0.30522821
0.15223501 0.75127504 0.29327636
0.17462000 0.75472805 0.25873124
0.52104196 0.79683689 0.15116454
0.81441317 0.80560293 0.01219535
0.98499095 0.80682243 0.07754056
1.00000000 0.80482513 0.17600837
1.00000000 0.80475255 0.17600013
0.26866600 0.17164900 0.54956900
0.26866600 0.17164900 0.54956900
0.35867916 0.17648041 0.56125751
0.65411346 0.15796499 0.56290935
0.78870800 0.07067980 0.51955400
0.78870800 0.07067980 0.51955400
0.78870800 0.07067980 0.51955400
0.78870800 0.07067980 0.51955400
0.78870800 0.07067980 0.51955400
0.26866600 0.17164900 0.54956900
0.26866600 0.17164900 0.54956900
0.35645797 0.17620397 0.56147038
0.65049559 0.15679073 0.56370230
0.78870800 0.07067980 0.51955400
0.78870800 0.07067980 0.51955400
0.78870800 0.07067980 0.51955400
0.78870800 0.07067980 0.51955400
0.78870800 0.07067980 0.51955400
0.29329719 0.22202890 0.56390381
0.29404538 0.21980605 0.56240069
0.29994493 0.19245840 0.56068455
0.53276212 0.17815339 0.56800329
0.78870800 0.07067980 0.51955400
0.78870800 0.07067980 0.51955400
0.78870800 0.07067980 0.51955400
0.78870800 0.07067980 0.51955400
0.78870800 0.07067980 0.51955400
0.34016757 0.43429836 0.60407862
0.33876814 0.43321287 0.60507835
0.33261472 0.39271295 0.59570841
0.46757970 0.35054658 0.59291203
0.73842605 0.28016685 0.57730501
0.86947992 0.17979331 0.55466906
0.85871896 0.16349765 0.55592515
0.85633931 0.15222391 0.55421586
0.85583971 0.15143767 0.55409338
0.33903054 0.68023237 0.69244695
0.34142074 0.67742742 0.69089129
0.37687683 0.60794382 0.65669306
0.42875699 0.55407918 0.62614747
0.63885830 0.51391403 0.60988871
0.89737734 0.45937193 0.58901021
0.90800952 0.43709666 0.58534312
0.90547766 0.42787269 0.57868834
0.90503707 0.42709672 0.57778742
0.25811538 0.76608624 0.67511994
0.25865165 0.76618619 0.67466649
0.28101329 0.76401872 0.65971048
0.31996146 0.75829297 0.62687655
0.57787008 0.70254962 0.56492989
0.81131913 0.64673143 0.50885146
0.94125907 0.63034834 0.51897885
0.93264218 0.61847062 0.52139064
0.93199259 0.61777085 0.52201134
0.28302375 0.76595567 0.61389786
0.28452784 0.76557500 0.61385404
0.31144850 0.76149971 0.60639436
0.29838680 0.77068293 0.60190000
0.47405795 0.78102765 0.54241595
0.77703287 0.82488737 0.40195323
0.99062771 0.79248730 0.41590765
1.00000000 0.77859573 0.45034794
1.00000000 0.77735126 0.45008184
0.27797663 0.76928631 0.59399592
0.27783955 0.76920469 0.59390231
0.28461141 0.76764767 0.58242649
0.30974214 0.76939694 0.57477321
0.44405787 0.77700651 0.50670934
0.73595156 0.81820721 0.36189109
0.99559671 0.82057470 0.32746874
1.00000000 0.82429441 0.43931154
1.00000000 0.82414511 0.43929555
0.27700022 0.76859420 0.59352908
0.27695267 0.76852853 0.59358760
0.29012408 0.76771552 0.57965625
0.31012386 0.76998462 0.57305238
0.44305931 0.77650338 0.50500055
0.73478271 0.81859543 0.35999619
0.99506950 0.82079402 0.31726151
1.00000000 0.82419884 0.43687662
1.00000000 0.82418874 0.43671414
0.26866600 0.17164900 0.54956900
0.26866600 0.17164900 0.54956900
0.35155733 0.17581480 0.56121991
0.63970720 0.16026544 0.56361800
0.78870800 0.07067980 0.51955400
0.78870800 0.07067980 0.51955400
0.78870800 0.07067980 0.51955400
0.78870800 0.07067980 0.51955400
0.78870800 0.07067980 0.51955400
0.26866600 0.17164900 0.54956900
0.26866600 0.17164900 0.54956900
0.34906786 0.17578940 0.56053994
0.63509642 0.16263741 0.56356856
0.78870800 0.07067980 0.51955400
0.78870800 0.07067980 0.51955400
0.78870800 0.07067980 0.51955400
0.78870800 0.07067980 0.51955400
0.78870800 0.07067980 0.51955400
0.29037070 0.20910372 0.55932007
0.28917644 0.20815982 0.55954587
0.29354735 0.18533400 0.56257597
0.52360825 0.17600056 0.56643969
0.78870800 0.07067980 0.51955400
0.78870800 0.07067980 0.51955400
0.78870800 0.07067980 0.51955400
0.78870800 0.07067980 0.51955400
0.78870800 0.07067980 0.51955400
0.33306523 0.42246290 0.61180738
0.33541566 0.42083145 0.60980027
0.33735150 0.37862048 0.59415912
0.45889475 0.34257826 0.58776158
0.72133512 0.26905739 0.57638407
0.86003484 0.16696583 0.55728108
0.84962014 0.14604074 0.55163782
0.84032848 0.13712832 0.54767400
0.84032081 0.13690383 0.54758820
0.37184036 0.65622844 0.67525487
0.37303531 0.65379496 0.67381746
0.38257422 0.59043302 0.65335183
0.41775158 0.54035906 0.63577478
0.63192935 0.50026470 0.63154669
0.88076507 0.44405517 0.61323501
0.91703709 0.42094338 0.61630811
0.91583731 0.40250378 0.60421574
0.91620645 0.40107803 0.60339181
0.20978100 0.76389700 0.75730500
0.20978100 0.76389700 0.75730500
0.20978100 0.76389700 0.75730500
0.29854089 0.73291313 0.72924306
0.56449055 0.68018164 0.68186937
0.77713885 0.64842077 0.66859852
0.97121402 0.61796229 0.66268602
0.96101489 0.60641452 0.65704063
0.96039006 0.60559511 0.65685398
0.20978100 0.76389700 0.75730500
0.20978100 0.76389700 0.75730500
0.19344862 0.76712230 0.74346598
0.23381947 0.76520098 0.73763281
0.45348575 0.79566199 0.70933701
0.68979888 0.81846623 0.68812978
0.97593437 0.85418554 0.76277485
0.99980509 0.82716555 0.73939380
0.99964396 0.82391031 0.73383222
0.18975825 0.76969791 0.71518770
0.19062484 0.76955244 0.71539595
0.21243810 0.76966184 0.71357677
0.24983863 0.77006757 0.69675129
0.45203586 0.79026241 0.67662272
0.63550448 0.83473482 0.63249945
0.90827785 0.89469630 0.64119022
1.00000000 0.89356730 0.70109342
1.00000000 0.89319877 0.70044227
0.19528820 0.76876052 0.71667953
0.19624850 0.76860036 0.71688399
0.21269976 0.77138395 0.71051664
0.25008797 0.76954614 0.69480484
0.45359284 0.78907501 0.67335252
0.63431886 0.83473939 0.62852451
0.90545168 0.89211804 0.63370329
1.00000000 0.88997662 0.69335267
1.00000000 0.88953543 0.69392248
0.26866600 0.17164900 0.54956900
0.26866600 0.17164900 0.54956900
0.34773967 0.17584571 0.55993333
0.63343986 0.16217444 0.56417435
0.78870800 0.07067980 0.51955400
0.78870800 0.07067980 0.51955400
0.78870800 0.07067980 0.51955400
0.78870800 0.07067980 0.51955400
0.78870800 0.07067980 0.51955400
0.26866600 0.17164900 0.54956900
0.26866600 0.17164900 0.54956900
0.34551193 0.17598128 0.55886145
0.63225937 0.16093776 0.56522634
0.78870800 0.07067980 0.51955400
0.78870800 0.07067980 0.51955400
0.78870800 0.07067980 0.51955400
0.78870800 0.07067980 0.51955400
0.78870800 0.07067980 0.51955400
0.28632577 0.20472122 0.56053422
0.28572819 0.20379668 0.56081942
0.29223219 0.18146555 0.55995615
0.51788958 0.17650514 0.56461982
0.78925336 0.07292897 0.51906453
0.78870800 0.07067980 0.51955400
0.78870800 0.07067980 0.51955400
0.78870800 0.07067980 0.51955400
0.78870800 0.07067980 0.51955400
0.34383320 0.41471490 0.60204846
0.34306012 0.41385307 0.60225466
0.33375433 0.37301772 0.59257627
0.45413659 0.33591054 0.58764206
0.71530521 0.26679188 0.57480781
0.85834704 0.16100597 0.55517234
0.84037658 0.13833193 0.54794426
0.83994078 0.13444900 0.54734674
0.83996266 0.13423585 0.54821659
0.37238519 0.64510638 0.67077688
0.37221486 0.64251496 0.66988292
0.38113302 0.58478625 0.64780408
0.41575725 0.53235997 0.63635152
0.62060123 0.49330899 0.62829175
0.87117239 0.43563309 0.61328514
0.91606755 0.40665865 0.60686330
0.92575321 0.38880824 0.60007418
0.92668428 0.38771983 0.59974913
0.20978100 0.76389700 0.75730500
0.20978100 0.76389700 0.75730500
0.20978100 0.76389700 0.75730500
0.31331749 0.72317987 0.72092036
0.56694701 0.66856867 0.67448904
0.77090723 0.63883745 0.66931436
0.96290339 0.60896721 0.65854589
0.95950620 0.59638195 0.65363813
0.95931221 0.59543420 0.65345548
0.20978100 0.76389700 0.75730500
0.20978100 0.76389700 0.75730500
0.20978100 0.76389700 0.75730500
0.22749323 0.76635150 0.75894069
0.43145785 0.79478630 0.75288641
0.68737696 0.81178834 0.75305360
0.93892372 0.83050521 0.80480215
1.00000000 0.79538783 0.79272266
1.00000000 0.79238908 0.78926911
0.20978100 0.76389700 0.75730500
0.20978100 0.76389700 0.75730500
0.20978100 0.76389700 0.75730500
0.22138636 0.76571740 0.74906882
0.41178630 0.79327822 0.75692321
0.62719687 0.84646683 0.76785033
0.85670762 0.89892006 0.81347349
1.00000000 0.97814702 0.92261880
1.00000000 0.97476153 0.92226125
0.20978100 0.76389700 0.75730500
0.20978100 0.76389700 0.75730500
0.20978100 0.76389700 0.75730500
0.22075913 0.76513575 0.74850028
0.41114657 0.79219973 0.75701226
0.62483131 0.84547251 0.76659422
0.85312467 0.89591727 0.80527097
0.99983297 0.98016658 0.91154251
0.99996066 0.98142958 0.91999293
0.26866600 0.17164900 0.54956900
0.26866600 0.17164900 0.54956900
0.34735573 0.17587099 0.55975362
0.63323149 0.16182782 0.56430985
0.78870800 0.07067980 0.51955400
0.78870800 0.07067980 0.51955400
0.78870800 0.07067980 0.51955400
0.78870800 0.07067980 0.51955400
0.78870800 0.07067980 0.51955400
0.26866600 0.17164900 0.54956900
0.26866600 0.17164900 0.54956900
0.34525142 0.17599616 0.55873529
0.63205519 0.16062997 0.56534981
0.78870800 0.07067980 0.51955400
0.78870800 0.07067980 0.51955400
0.78870800 0.07067980 0.51955400
0.78870800 0.07067980 0.51955400
0.78870800 0.07067980 0.51955400
0.28623546 0.20456812 0.56058515
0.28549156 0.20343535 0.56093473
0.29225508 0.18107448 0.55940929
0.51774471 0.17652774 0.56457639
0.78933551 0.07334098 0.51898264
0.78870800 0.07067980 0.51955400
0.78870800 0.07067980 0.51955400
0.78870800 0.07067980 0.51955400
0.78870800 0.07067980 0.51955400
0.34362478 0.41445992 0.60223489
0.34285158 0.41361936 0.60234662
0.33397119 0.37261390 0.59233070
0.45373584 0.33518334 0.58752253
0.71429760 0.26649284 0.57467042
0.85831667 0.16013392 0.55526577
0.84042579 0.13808623 0.54784108
0.83994276 0.13425848 0.54804022
0.83997056 0.13405257 0.54890849
0.37229219 0.64446475 0.67056672
0.37206228 0.64158549 0.66958935
0.38102925 0.58442861 0.64742491
0.41560055 0.53217378 0.63624509
0.61947784 0.49275839 0.62803673
0.87066796 0.43516881 0.61325041
0.91604001 0.40588435 0.60632023
0.92640097 0.38809895 0.59983644
0.92755885 0.38673502 0.59943289
0.20978100 0.76389700 0.75730500
0.20978100 0.76389700 0.75730500
0.20978100 0.76389700 0.75730500
0.31449111 0.72244690 0.72058809
0.56714993 0.66780572 0.67410902
0.77023387 0.63814636 0.66899804
0.96212490 0.60845069 0.65830343
0.95940308 0.59588839 0.65354638
0.95919158 0.59506466 0.65343285
0.20978100 0.76389700 0.75730500
0.20978100 0.76389700 0.75730500
0.20978100 0.76389700 0.75730500
0.22781767 0.76610939 0.75942723
0.43103735 0.79475431 0.75330260
0.68682220 0.81061675 0.75276899
0.93865777 0.82882007 0.80380095
1.00000000 0.79301976 0.79002853
1.00000000 0.79033161 0.78672580
0.20978100 0.76389700 0.75730500
0.20978100 0.76389700 0.75730500
0.20978100 0.76389700 0.75730500
0.22118170 0.76552242 0.74888155
0.41143161 0.79307368 0.75685136
0.62640273 0.84617423 0.76766333
0.85181104 0.89956456 0.81615539
1.00000000 0.97619184 0.92843069
1.00000000 0.97370063 0.92641106
0.20978100 0.76389700 0.75730500
0.20978100 0.76389700 0.75730500
0.20978100 0.76389700 0.75730500
0.22064241 0.76502725 0.74839605
0.41104779 0.79207019 0.75702059
0.62436363 0.84522332 0.76692554
0.84462458 0.89809457 0.81301908
1.00000000 0.97962635 0.92829296
1.00000000 0.98532100 0.93641600
